X: 163
T: Sean at the Wheel (reel)
N: 190092
C: BB
R: reel
Q: 1/8=380
M: 4/4
L: 1/8
K: Dm
"Dm"DA,A,F "C"EDCE|"Dm"DEFG Ad^cd|"Dm"fd (3ded "Am"ecAc|"Dm"d2 cA "C"GEFE|
"Dm"DA,A,F "C"EDCE|"Dm"DEFG Ad^cd|"Dm"fd (3ded "Am"edcA|"C7"GcBc "Dm"ED D2 :|
"Dm"dAcA "Dm7"dAcA|"Dm"defa "C"gefe|"Dm7"dAcA "Dm"daag|"Dm"fdef "Am"eAce|
"Dm"dAcA "Dm7"dAcA|"Dm"defd "C"efge|"Dm"fd (3ded "Am"edcA|"C7"GcBc "Dm"ED D2 :|
%%%%%%%%%%%%%%%%%%%%%%%%%%%%%%%%%%%%%%%%%%%
